build/img/icon/instagram.svg

<svg width="44.000000" height="44.000000" viewBox="0 0 44 44" fill="none" xmlns="http://www.w3.org/2000/svg" xmlns:xlink="http://www.w3.org/1999/xlink">
	<desc>
			Created with Pixso.
	</desc>
	<defs>
		<clipPath id="clip42_1113">
			<rect id="ri:linkedin-fill" width="22.000000" height="22.000000" transform="translate(11.000000 11.000000)" fill="white" fill-opacity="0"/>
		</clipPath>
	</defs>
	<rect id="Social_icon" rx="22.000000" width="44.000000" height="44.000000" fill="#FCFCFC" fill-opacity="0.120000"/>
	<rect id="ri:linkedin-fill" width="22.000000" height="22.000000" transform="translate(11.000000 11.000000)" fill="#FFFFFF" fill-opacity="0"/>
	<g clip-path="url(#clip42_1113)">
		<path id="Vector" d="M17.3615 14.5833C17.3612 15.0696 17.1678 15.5356 16.8239 15.8794C16.4799 16.2229 16.0135 16.416 15.5273 16.4158C15.041 16.4155 14.5748 16.2222 14.2311 15.8782C13.8875 15.5342 13.6946 15.0676 13.6948 14.5815C13.6951 14.0952 13.8885 13.6289 14.2325 13.2854C14.5764 12.9417 15.0428 12.7488 15.5291 12.749C16.0153 12.7493 16.4815 12.9426 16.8252 13.2866C17.1688 13.6306 17.3617 14.0969 17.3615 14.5833ZM17.4165 17.7732L13.7498 17.7732L13.7498 29.25L17.4165 29.25L17.4165 17.7732ZM23.2098 17.7732L19.5615 17.7732L19.5615 29.25L23.1732 29.25L23.1732 23.2275C23.1732 19.8726 27.5457 19.5608 27.5457 23.2275L27.5457 29.25L31.1665 29.25L31.1665 21.9807C31.1665 16.325 24.6948 16.5359 23.1732 19.3132L23.2098 17.7732Z" fill="#FCFCFC" fill-opacity="1.000000" fill-rule="nonzero"/>
	</g>
</svg>

<svg width="44" height="44" viewBox="0 0 44 44" fill="none" xmlns="http://www.w3.org/2000/svg"><defs><clipPath id="clip42_1113"><path id="ri:linkedin-fill" transform="translate(11 11)" fill="#fff" fill-opacity="0" d="M0 0h22v22H0z"/></clipPath></defs><rect id="Social_icon" rx="22" width="44" height="44" fill="#FCFCFC" fill-opacity=".12"/><path id="ri:linkedin-fill" transform="translate(11 11)" fill="#FFF" fill-opacity="0" d="M0 0h22v22H0z"/><g clip-path="url(#clip42_1113)"><path id="Vector" d="M17.361 14.583a1.834 1.834 0 11-3.668-.002 1.834 1.834 0 013.668.002zm.055 3.19H13.75V29.25h3.666V17.773zm5.794 0h-3.65V29.25h3.612v-6.023c0-3.354 4.373-3.666 4.373 0v6.023h3.62v-7.27c0-5.655-6.471-5.444-7.993-2.667l.037-1.54z" fill="#FCFCFC" fill-opacity="1" fill-rule="nonzero"/></g></svg>
